images/icons/generic-email-alt.svg

<svg fill="none" height="24" viewBox="0 0 24 24" width="24" xmlns="http://www.w3.org/2000/svg" xmlns:xlink="http://www.w3.org/1999/xlink"><clipPath id="a"><path d="m0 0h24v24h-24z"/></clipPath><g clip-path="url(#a)"><path d="m12 24c-1.64 0-3.19-.315-4.65-.945s-2.735-1.49-3.825-2.58-1.95-2.365-2.58-3.825-.945-3.01-.945-4.65c0-1.66.315-3.215.945-4.665s1.49-2.72 2.58-3.81 2.365-1.95 3.825-2.58 3.01-.945 4.65-.945c1.66 0 3.215.315 4.665.945s2.72 1.49 3.81 2.58 1.95 2.36 2.58 3.81.945 3.005.945 4.665v1.74c0 1.18-.405 2.185-1.215 3.015s-1.805 1.245-2.985 1.245c-.72 0-1.39-.16-2.01-.48s-1.13-.74-1.53-1.26c-.54.54-1.175.965-1.905 1.275s-1.515.465-2.355.465c-1.66 0-3.075-.585-4.245-1.755s-1.755-2.585-1.755-4.245.585-3.075 1.755-4.245 2.585-1.755 4.245-1.755 3.075.585 4.245 1.755 1.755 2.585 1.755 4.245v1.74c0 .58.18 1.035.54 1.365s.78.495 1.26.495.9-.165 1.26-.495.54-.785.54-1.365v-1.74c0-2.62-.945-4.875-2.835-6.765s-4.145-2.835-6.765-2.835-4.875.945-6.765 2.835-2.835 4.145-2.835 6.765.945 4.875 2.835 6.765 4.145 2.835 6.765 2.835h4.8c.34 0 .625.115.855.345s.345.515.345.855-.115.625-.345.855-.515.345-.855.345zm0-8.4c1 0 1.85-.35 2.55-1.05s1.05-1.55 1.05-2.55-.35-1.85-1.05-2.55-1.55-1.05-2.55-1.05-1.85.35-2.55 1.05-1.05 1.55-1.05 2.55.35 1.85 1.05 2.55 1.55 1.05 2.55 1.05z" fill="#fff"/></g></svg>

<svg width="24" height="24" viewBox="0 0 24 24" fill="none" xmlns="http://www.w3.org/2000/svg">
<g clip-path="url(#clip0_1436_672)">
<path d="M12 24C10.36 24 8.81 23.685 7.35 23.055C5.89 22.425 4.615 21.565 3.525 20.475C2.435 19.385 1.575 18.11 0.945 16.65C0.315 15.19 0 13.64 0 12C0 10.34 0.315 8.785 0.945 7.335C1.575 5.885 2.435 4.615 3.525 3.525C4.615 2.435 5.89 1.575 7.35 0.945C8.81 0.315 10.36 0 12 0C13.66 0 15.215 0.315 16.665 0.945C18.115 1.575 19.385 2.435 20.475 3.525C21.565 4.615 22.425 5.885 23.055 7.335C23.685 8.785 24 10.34 24 12V13.74C24 14.92 23.595 15.925 22.785 16.755C21.975 17.585 20.98 18 19.8 18C19.08 18 18.41 17.84 17.79 17.52C17.17 17.2 16.66 16.78 16.26 16.26C15.72 16.8 15.085 17.225 14.355 17.535C13.625 17.845 12.84 18 12 18C10.34 18 8.925 17.415 7.755 16.245C6.585 15.075 6 13.66 6 12C6 10.34 6.585 8.925 7.755 7.755C8.925 6.585 10.34 6 12 6C13.66 6 15.075 6.585 16.245 7.755C17.415 8.925 18 10.34 18 12V13.74C18 14.32 18.18 14.775 18.54 15.105C18.9 15.435 19.32 15.6 19.8 15.6C20.28 15.6 20.7 15.435 21.06 15.105C21.42 14.775 21.6 14.32 21.6 13.74V12C21.6 9.38 20.655 7.125 18.765 5.235C16.875 3.345 14.62 2.4 12 2.4C9.38 2.4 7.125 3.345 5.235 5.235C3.345 7.125 2.4 9.38 2.4 12C2.4 14.62 3.345 16.875 5.235 18.765C7.125 20.655 9.38 21.6 12 21.6H16.8C17.14 21.6 17.425 21.715 17.655 21.945C17.885 22.175 18 22.46 18 22.8C18 23.14 17.885 23.425 17.655 23.655C17.425 23.885 17.14 24 16.8 24H12ZM12 15.6C13 15.6 13.85 15.25 14.55 14.55C15.25 13.85 15.6 13 15.6 12C15.6 11 15.25 10.15 14.55 9.45C13.85 8.75 13 8.4 12 8.4C11 8.4 10.15 8.75 9.45 9.45C8.75 10.15 8.4 11 8.4 12C8.4 13 8.75 13.85 9.45 14.55C10.15 15.25 11 15.6 12 15.6Z" fill="white"/>
</g>
<defs>
<clipPath id="clip0_1436_672">
<rect width="24" height="24" fill="white"/>
</clipPath>
</defs>
</svg>
